X:139
T:A Night At The Fair
C:Joe Buchanan's Scottish Tome - Page 255.5
I:255 5
Z:Carl Allison
R:Jig
L:1/8
M:6/8
K:G
A2 | B2 A GFE | EGG G2 A | BGG dGG | BAA ABc | B2 A GED | EGG G2 A | BGB Adc | BGG G2 :|
d | egg eaa | egg ged | edB AGA | BAA A2 d | dgg eaa | egg ged | ced cBA | BGG G2 :| 

